austria/municipalities/20705.svg

<svg xmlns="http://www.w3.org/2000/svg" width="850" height="850" style="shape-rendering:geometricPrecision;text-rendering:geometricPrecision;image-rendering:optimizeQuality;fill-rule:evenodd;clip-rule:evenodd"><path style="opacity:1" fill="#c8c7c7" d="M837.5 17.5v-6h-826v4c-.951-1.419-1.284-3.085-1-5h828c.302 2.56-.032 4.893-1 7z"/><path style="opacity:1" fill="#262324" d="M837.5 17.5a61428.695 61428.695 0 0 1-33.5 476C787.151 627.569 720.318 727.736 603.5 794c-104.483 53.02-211.483 58.687-321 17C160.989 759.146 84.49 668.979 53 540.5a420.512 420.512 0 0 1-7-40 46084.756 46084.756 0 0 1-34.5-485v-4h826v6z"/><path style="opacity:1" fill="#124262" d="M417.5 28.5v1h-387v3c-.934-1.068-1.268-2.401-1-4h388z"/><path style="opacity:1" fill="#126237" d="M428.5 29.5v-1h391c.295 2.235-.039 4.235-1 6v-5h-390z"/><path style="opacity:1" fill="#0166a6" d="M417.5 29.5v515h-102c.167-108.334 0-216.667-.5-325-.294-15.26-6.461-27.427-18.5-36.5-18.393-7.36-33.893-3.527-46.5 11.5.894-21.394-1.439-42.394-7-63-10.307-23.909-28.474-33.742-54.5-29.5-17.211 4.875-29.045 15.708-35.5 32.5a97.77 97.77 0 0 0-6 25 74075.63 74075.63 0 0 0-.5 385h-73c-6.09-21.418-9.923-43.418-11.5-66a701357.268 701357.268 0 0 1-31.5-446v-3h387z"/><path style="opacity:1" fill="#fdfdfd" d="M417.5 28.5h11v792c-118.881-1.863-215.714-48.53-290.5-140-31.402-40.477-52.902-85.81-64.5-136h73c-.167-128.334 0-256.667.5-385a97.77 97.77 0 0 1 6-25c6.455-16.792 18.289-27.625 35.5-32.5 26.026-4.242 44.193 5.591 54.5 29.5 5.561 20.606 7.894 41.606 7 63 12.607-15.027 28.107-18.86 46.5-11.5 12.039 9.073 18.206 21.24 18.5 36.5.5 108.333.667 216.666.5 325h102v-516z"/><path style="opacity:1" fill="#02a550" d="M428.5 29.5h390v5a85664.875 85664.875 0 0 1-32.5 456C772.115 608.523 715.948 700.023 617.5 765c-58.002 35.418-121.002 53.918-189 55.5v-791z"/><path style="opacity:1" fill="#0266a6" d="M186.5 116.5c18.592-2.543 30.925 4.957 37 22.5a130.006 130.006 0 0 1 4.5 20.5c.5 128.333.667 256.666.5 385h-72c-.167-127.334 0-254.667.5-382 1.024-10.795 3.69-21.128 8-31 5.142-8.135 12.309-13.135 21.5-15z"/><path style="opacity:1" fill="#252220" d="M592.5 382.5a2550.778 2550.778 0 0 0 1-101h-48c-3.266-1.037-4.933-3.37-5-7l5.5-29c1.451-1.964 3.284-3.297 5.5-4h42a650.602 650.602 0 0 0-1-51c-20.003-.167-40.003 0-60 .5 9.905 30.522-.428 50.855-31 61-22.633 2.772-40.8-5.061-54.5-23.5-4.742-6.05-8.575-12.55-11.5-19.5.019-3.033 1.352-5.367 4-7a172.905 172.905 0 0 1 24-14.5c2.093-.014 3.926.652 5.5 2 4.379 8.376 10.213 15.543 17.5 21.5 6.62 2.627 12.453 1.46 17.5-3.5.293-7.25-2.54-13.083-8.5-17.5-5.877-1.926-9.211-5.926-10-12a394.856 394.856 0 0 0 4.5-24.5c1.167-2.5 3-4.333 5.5-5.5a7860.98 7860.98 0 0 1 250 1c2.333 1.333 3.333 3.333 3 6a406.434 406.434 0 0 0-7 39c2.1 18.204 11.767 24.537 29 19 2.681-2.194 4.181-5.027 4.5-8.5l1-14c5.294-5.358 9.961-4.691 14 2 9.355 22.6 3.522 40.1-17.5 52.5-29.871 11.148-50.037 1.648-60.5-28.5a162.847 162.847 0 0 1-2.5-26h-74v51c16.337-.167 32.67 0 49 .5 2.094 1.255 3.094 3.088 3 5.5a1413.302 1413.302 0 0 1-5.5 30c-1.227 2.226-3.061 3.726-5.5 4.5a840.27 840.27 0 0 1-41 .5c-.167 33.668 0 67.335.5 101l20.5 20.5c.667.667 1.333.667 2 0l11-11a592.329 592.329 0 0 1-27.5-30.5c-.667-1.667-.667-3.333 0-5a1310.333 1310.333 0 0 1 43.5-42.5c3.134-.79 6.134-.457 9 1a1017.709 1017.709 0 0 0 26 27.5c8.716-9.182 18.716-11.016 30-5.5 7.606 7.632 9.106 16.465 4.5 26.5a45.255 45.255 0 0 1-7.5 8.5l13.5 15.5a326.056 326.056 0 0 1-1 41c.801 6.771-2.032 10.771-8.5 12-13.02-1.36-26.02-2.86-39-4.5a327.828 327.828 0 0 1-16-14.5 9359.98 9359.98 0 0 1-11 10 1334.353 1334.353 0 0 0 52.5 54c.79 3.134.457 6.134-1 9L716.5 516a16.242 16.242 0 0 1-8 0l-53-53c-4.633 2.446-8.633 5.946-12 10.5a13603.865 13603.865 0 0 1 95.5 101c6.866 11.159 5.699 21.326-3.5 30.5-8.43 3.853-16.43 3.186-24-2a14149.35 14149.35 0 0 0-97-102.5 13745.006 13745.006 0 0 0-101 96.5c-10.703 9.134-20.87 8.634-30.5-1.5-4.892-8.537-4.558-16.871 1-25l85.5-81.5a215.583 215.583 0 0 0 17-18 85.094 85.094 0 0 0-10.5-11.5 2136.71 2136.71 0 0 0-54.5 55.5c-3.667 2-7.333 2-11 0L491 495.5c-1.25-2.577-1.584-5.243-1-8a2376.209 2376.209 0 0 1 57.5-58.5 194.412 194.412 0 0 0-12-11.5 1248.51 1248.51 0 0 0-30 29.5c-2 .667-4 .667-6 0a1024.295 1024.295 0 0 1-37.5-38.5c-1.457-2.866-1.79-5.866-1-9l83.5-83.5a16.242 16.242 0 0 1 8 0l37.5 39.5c.755 2.803.422 5.47-1 8L563.5 389a177.313 177.313 0 0 1 11 11.5 229.508 229.508 0 0 0 18-18z"/><path style="opacity:1" fill="#c59116" d="M740.5 156.5a7455.543 7455.543 0 0 0-244 0c40.495-1.333 81.328-2 122.5-2l122.5 1c-.124.607-.457.94-1 1z"/><path style="opacity:1" fill="#fab613" d="M740.5 156.5a1018.463 1018.463 0 0 0-6 37.5c1.739 21.078 13.073 30.411 34 28 7.363-2.695 11.863-7.862 13.5-15.5l1-12c8.221 17.012 4.721 31.179-10.5 42.5-26.346 12.641-44.179 5.141-53.5-22.5a129.955 129.955 0 0 1-2.5-31h-88v64h52a614.231 614.231 0 0 1-5 28h-47c-.167 37.002 0 74.002.5 111l23.5 23.5a282.27 282.27 0 0 0-20.5 19.5l-18-18a327.974 327.974 0 0 1-15.5 15l-19-20c6.688-7.02 13.355-14.02 20-21 .998-36.83 1.332-73.83 1-111h-52v-3a565.91 565.91 0 0 1 4-23h48c.331-21.84-.003-43.506-1-65-27.002-.167-54.002 0-81 .5 9.903 9.048 13.403 20.215 10.5 33.5-4.439 13.773-13.606 22.939-27.5 27.5-15.178 3.052-28.512-.615-40-11a152.032 152.032 0 0 1-19-24.5 238.768 238.768 0 0 1 21-15 94.737 94.737 0 0 0 18 21.5c8.016 4.596 16.016 4.596 24 0 5.093-4.017 6.926-9.184 5.5-15.5-3.184-9.015-9.017-15.682-17.5-20l-1-2.5a565.5 565.5 0 0 0 4-21.5 7455.543 7455.543 0 0 1 244 0z"/><path style="opacity:1" fill="#0066a6" d="M271.5 191.5c19.549-.96 30.382 8.374 32.5 28 .5 108.333.667 216.666.5 325h-55c-.167-106.334 0-212.667.5-319 .959-12.082 5.792-22.249 14.5-30.5l7-3.5z"/><path style="opacity:1" fill="#126237" d="M592.5 190.5a650.602 650.602 0 0 1 1 51h-42a420.766 420.766 0 0 1 41-1v-50z"/><path style="opacity:1" fill="#7b5d1c" d="M599.5 183.5c.997 21.494 1.331 43.16 1 65h-48a552.805 552.805 0 0 1 47-1v-64z"/><path style="opacity:1" fill="#795c1c" d="M548.5 271.5v3h52c.332 37.17-.002 74.17-1 111v-110h-52c-.268-1.599.066-2.932 1-4z"/><path style="opacity:1" fill="#155a35" d="M545.5 281.5h48c.332 33.837-.002 67.504-1 101v-100a552.805 552.805 0 0 1-47-1z"/><path style="opacity:1" fill="#fbb613" d="M688.5 321.5a2.428 2.428 0 0 1 2 .5 1342.109 1342.109 0 0 0 30 31.5c4.288-4.791 9.288-8.625 15-11.5 11.823-.837 16.656 4.663 14.5 16.5a64.556 64.556 0 0 1-12.5 14.5 203.814 203.814 0 0 1 16.5 17.5 716.566 716.566 0 0 1-1.5 44 3707.202 3707.202 0 0 1-38-4.5 228.489 228.489 0 0 1-17.5-18.5 5428.95 5428.95 0 0 1-63.5 61 15169.228 15169.228 0 0 0 100.5 107c3.997 7.221 3.164 13.721-2.5 19.5-5.157 2.168-10.157 1.835-15-1a15600.325 15600.325 0 0 0-102-107.5 15172.566 15172.566 0 0 0-106 101.5c-11.083 7.455-18.416 4.788-22-8 .452-3.409 1.619-6.576 3.5-9.5 35.565-34.234 71.065-68.401 106.5-102.5a2657.06 2657.06 0 0 0-59-64c-1-.667-2-.667-3 0L502 440.5l-34-36c-.667-.667-.667-1.333 0-2a9100.955 9100.955 0 0 1 80.5-80 1815.96 1815.96 0 0 1 35 36.5L555 387.5c-.667 1-.667 2 0 3a2048.714 2048.714 0 0 0 60.5 63 1820.65 1820.65 0 0 0 64-60.5l-31-33a2197.061 2197.061 0 0 0 40-38.5z"/><path style="opacity:1" fill="#01a14e" d="M612.5 421.5c5.699 2.858 10.366 7.025 14 12.5L616 444.5a229.592 229.592 0 0 1-12.5-13c3.022-3.353 6.022-6.687 9-10z"/><path style="opacity:1" fill="#fab613" d="M551.5 434.5a2.428 2.428 0 0 1 2 .5 241.166 241.166 0 0 0 18 19 2098.03 2098.03 0 0 0-54 55c-1 .667-2 .667-3 0a469.033 469.033 0 0 1-18-18.5c18.355-18.687 36.688-37.354 55-56z"/><path style="opacity:1" fill="#fbb713" d="M678.5 438.5a973.11 973.11 0 0 1 53 52c-6 6.667-12.333 13-19 19a3931.8 3931.8 0 0 1-53-52.5 492.451 492.451 0 0 1 19-18.5z"/><path style="opacity:1" fill="#231f20" d="M416.5 546.5a1603.715 1603.715 0 0 1 .5 98c-12.431 8.886-26.264 12.72-41.5 11.5a502.203 502.203 0 0 0-34-15c-15.602-3.217-30.602-1.551-45 5-13.084 14.091-27.584 15.924-43.5 5.5a35.145 35.145 0 0 1-5-10 246.114 246.114 0 0 1-2.5-41c63.628 2.008 120.628-15.992 171-54z"/><path style="opacity:1" fill="#242021" d="M83.5 548.5c23.158 16.585 48.158 30.085 75 40.5 23.088 7.417 46.755 11.251 71 11.5.42 12.728-.08 25.394-1.5 38-2.167 8.833-7.667 14.333-16.5 16.5-10.76 1.061-21.093-.605-31-5-19.464-10.033-40.131-15.7-62-17-15.386-26.609-27.053-54.775-35-84.5z"/><path style="opacity:1" fill="#231f20" d="M155.5 683.5a60.931 60.931 0 0 1 11 .5 176.145 176.145 0 0 1 20 11c14.982 5.197 29.648 4.53 44-2 3.307-4.151 7.307-7.318 12-9.5a29.198 29.198 0 0 1 7 2.5 137.896 137.896 0 0 0 13 9c6.584 1.544 13.251 1.877 20 1a188.751 188.751 0 0 0 24-10c14.078-3.466 28.078-3.133 42 1a275.95 275.95 0 0 0 30 10 90.455 90.455 0 0 0 19 0 136.056 136.056 0 0 0 20-5.5v120c-104.847-4.679-192.014-46.013-261.5-124-1.334-1.378-1.501-2.711-.5-4z"/></svg>

<?xml version="1.0" encoding="UTF-8"?>
<!DOCTYPE svg PUBLIC "-//W3C//DTD SVG 1.1//EN" "http://www.w3.org/Graphics/SVG/1.1/DTD/svg11.dtd">
<svg xmlns="http://www.w3.org/2000/svg" version="1.1" width="850px" height="850px" style="shape-rendering:geometricPrecision; text-rendering:geometricPrecision; image-rendering:optimizeQuality; fill-rule:evenodd; clip-rule:evenodd" xmlns:xlink="http://www.w3.org/1999/xlink">
<g><path style="opacity:1" fill="#c8c7c7" d="M 837.5,17.5 C 837.5,15.5 837.5,13.5 837.5,11.5C 562.167,11.5 286.833,11.5 11.5,11.5C 11.5,12.8333 11.5,14.1667 11.5,15.5C 10.5489,14.0813 10.2155,12.4147 10.5,10.5C 286.5,10.5 562.5,10.5 838.5,10.5C 838.802,13.0593 838.468,15.3926 837.5,17.5 Z"/></g>
<g><path style="opacity:1" fill="#262324" d="M 837.5,17.5 C 826.95,176.207 815.783,334.873 804,493.5C 787.151,627.569 720.318,727.736 603.5,794C 499.017,847.02 392.017,852.687 282.5,811C 160.989,759.146 84.4891,668.979 53,540.5C 50.0225,527.279 47.6891,513.946 46,500.5C 33.6471,338.893 22.1471,177.227 11.5,15.5C 11.5,14.1667 11.5,12.8333 11.5,11.5C 286.833,11.5 562.167,11.5 837.5,11.5C 837.5,13.5 837.5,15.5 837.5,17.5 Z"/></g>
<g><path style="opacity:1" fill="#124262" d="M 417.5,28.5 C 417.5,28.8333 417.5,29.1667 417.5,29.5C 288.5,29.5 159.5,29.5 30.5,29.5C 30.5,30.5 30.5,31.5 30.5,32.5C 29.5655,31.4324 29.2322,30.099 29.5,28.5C 158.833,28.5 288.167,28.5 417.5,28.5 Z"/></g>
<g><path style="opacity:1" fill="#126237" d="M 428.5,29.5 C 428.5,29.1667 428.5,28.8333 428.5,28.5C 558.833,28.5 689.167,28.5 819.5,28.5C 819.795,30.7354 819.461,32.7354 818.5,34.5C 818.5,32.8333 818.5,31.1667 818.5,29.5C 688.5,29.5 558.5,29.5 428.5,29.5 Z"/></g>
<g><path style="opacity:1" fill="#0166a6" d="M 417.5,29.5 C 417.5,201.167 417.5,372.833 417.5,544.5C 383.5,544.5 349.5,544.5 315.5,544.5C 315.667,436.166 315.5,327.833 315,219.5C 314.706,204.24 308.539,192.073 296.5,183C 278.107,175.64 262.607,179.473 250,194.5C 250.894,173.106 248.561,152.106 243,131.5C 232.693,107.591 214.526,97.758 188.5,102C 171.289,106.875 159.455,117.708 153,134.5C 149.9,142.567 147.9,150.901 147,159.5C 146.5,287.833 146.333,416.166 146.5,544.5C 122.167,544.5 97.8333,544.5 73.5,544.5C 67.4107,523.082 63.5773,501.082 62,478.5C 51.4522,329.831 40.9522,181.164 30.5,32.5C 30.5,31.5 30.5,30.5 30.5,29.5C 159.5,29.5 288.5,29.5 417.5,29.5 Z"/></g>
<g><path style="opacity:1" fill="#fdfdfd" d="M 417.5,28.5 C 421.167,28.5 424.833,28.5 428.5,28.5C 428.5,28.8333 428.5,29.1667 428.5,29.5C 428.5,293.167 428.5,556.833 428.5,820.5C 309.619,818.637 212.786,771.97 138,680.5C 106.598,640.023 85.0983,594.69 73.5,544.5C 97.8333,544.5 122.167,544.5 146.5,544.5C 146.333,416.166 146.5,287.833 147,159.5C 147.9,150.901 149.9,142.567 153,134.5C 159.455,117.708 171.289,106.875 188.5,102C 214.526,97.758 232.693,107.591 243,131.5C 248.561,152.106 250.894,173.106 250,194.5C 262.607,179.473 278.107,175.64 296.5,183C 308.539,192.073 314.706,204.24 315,219.5C 315.5,327.833 315.667,436.166 315.5,544.5C 349.5,544.5 383.5,544.5 417.5,544.5C 417.5,372.833 417.5,201.167 417.5,29.5C 417.5,29.1667 417.5,28.8333 417.5,28.5 Z"/></g>
<g><path style="opacity:1" fill="#02a550" d="M 428.5,29.5 C 558.5,29.5 688.5,29.5 818.5,29.5C 818.5,31.1667 818.5,32.8333 818.5,34.5C 808.073,186.516 797.24,338.516 786,490.5C 772.115,608.523 715.948,700.023 617.5,765C 559.498,800.418 496.498,818.918 428.5,820.5C 428.5,556.833 428.5,293.167 428.5,29.5 Z"/></g>
<g><path style="opacity:1" fill="#0266a6" d="M 186.5,116.5 C 205.092,113.957 217.425,121.457 223.5,139C 225.552,145.71 227.052,152.543 228,159.5C 228.5,287.833 228.667,416.166 228.5,544.5C 204.5,544.5 180.5,544.5 156.5,544.5C 156.333,417.166 156.5,289.833 157,162.5C 158.024,151.705 160.69,141.372 165,131.5C 170.142,123.365 177.309,118.365 186.5,116.5 Z"/></g>
<g><path style="opacity:1" fill="#252220" d="M 592.5,382.5 C 593.498,349.004 593.832,315.337 593.5,281.5C 577.5,281.5 561.5,281.5 545.5,281.5C 542.234,280.463 540.567,278.13 540.5,274.5C 542.333,264.839 544.166,255.172 546,245.5C 547.451,243.536 549.284,242.203 551.5,241.5C 565.5,241.5 579.5,241.5 593.5,241.5C 593.83,224.325 593.497,207.325 592.5,190.5C 572.497,190.333 552.497,190.5 532.5,191C 542.405,221.522 532.072,241.855 501.5,252C 478.867,254.772 460.7,246.939 447,228.5C 442.258,222.45 438.425,215.95 435.5,209C 435.519,205.967 436.852,203.633 439.5,202C 447.16,196.485 455.16,191.652 463.5,187.5C 465.593,187.486 467.426,188.152 469,189.5C 473.379,197.876 479.213,205.043 486.5,211C 493.12,213.627 498.953,212.46 504,207.5C 504.293,200.25 501.46,194.417 495.5,190C 489.623,188.074 486.289,184.074 485.5,178C 487.258,169.879 488.758,161.712 490,153.5C 491.167,151 493,149.167 495.5,148C 578.89,147.008 662.223,147.342 745.5,149C 747.833,150.333 748.833,152.333 748.5,155C 745.538,167.858 743.204,180.858 741.5,194C 743.6,212.204 753.267,218.537 770.5,213C 773.181,210.806 774.681,207.973 775,204.5C 775.333,199.833 775.667,195.167 776,190.5C 781.294,185.142 785.961,185.809 790,192.5C 799.355,215.1 793.522,232.6 772.5,245C 742.629,256.148 722.463,246.648 712,216.5C 710.47,207.897 709.637,199.23 709.5,190.5C 684.833,190.5 660.167,190.5 635.5,190.5C 635.5,207.5 635.5,224.5 635.5,241.5C 651.837,241.333 668.17,241.5 684.5,242C 686.594,243.255 687.594,245.088 687.5,247.5C 685.774,257.522 683.941,267.522 682,277.5C 680.773,279.726 678.939,281.226 676.5,282C 662.837,282.5 649.171,282.667 635.5,282.5C 635.333,316.168 635.5,349.835 636,383.5C 642.833,390.333 649.667,397.167 656.5,404C 657.167,404.667 657.833,404.667 658.5,404C 662.167,400.333 665.833,396.667 669.5,393C 659.963,383.132 650.797,372.965 642,362.5C 641.333,360.833 641.333,359.167 642,357.5C 656.142,343.025 670.642,328.859 685.5,315C 688.634,314.21 691.634,314.543 694.5,316C 703.012,325.344 711.678,334.511 720.5,343.5C 729.216,334.318 739.216,332.484 750.5,338C 758.106,345.632 759.606,354.465 755,364.5C 752.872,367.63 750.372,370.463 747.5,373C 752,378.167 756.5,383.333 761,388.5C 761.527,402.182 761.194,415.849 760,429.5C 760.801,436.271 757.968,440.271 751.5,441.5C 738.48,440.14 725.48,438.64 712.5,437C 707.017,432.351 701.684,427.518 696.5,422.5C 692.808,425.862 689.141,429.195 685.5,432.5C 702.455,450.956 719.955,468.956 738,486.5C 738.79,489.634 738.457,492.634 737,495.5C 730.167,502.333 723.333,509.167 716.5,516C 713.833,516.667 711.167,516.667 708.5,516C 690.833,498.333 673.167,480.667 655.5,463C 650.867,465.446 646.867,468.946 643.5,473.5C 675.516,507.016 707.35,540.682 739,574.5C 745.866,585.659 744.699,595.826 735.5,605C 727.07,608.853 719.07,608.186 711.5,603C 679.322,568.656 646.988,534.489 614.5,500.5C 580.682,532.484 547.015,564.651 513.5,597C 502.797,606.134 492.63,605.634 483,595.5C 478.108,586.963 478.442,578.629 484,570.5C 512.5,543.333 541,516.167 569.5,489C 575.545,483.29 581.212,477.29 586.5,471C 583.382,466.879 579.882,463.046 576,459.5C 557.471,477.695 539.305,496.195 521.5,515C 517.833,517 514.167,517 510.5,515C 504,508.5 497.5,502 491,495.5C 489.75,492.923 489.416,490.257 490,487.5C 508.805,467.695 527.971,448.195 547.5,429C 543.652,424.984 539.652,421.151 535.5,417.5C 525.347,427.152 515.347,436.986 505.5,447C 503.5,447.667 501.5,447.667 499.5,447C 486.692,434.524 474.192,421.691 462,408.5C 460.543,405.634 460.21,402.634 461,399.5C 488.833,371.667 516.667,343.833 544.5,316C 547.167,315.333 549.833,315.333 552.5,316C 565,329.167 577.5,342.333 590,355.5C 590.755,358.303 590.422,360.97 589,363.5C 580.5,372 572,380.5 563.5,389C 567.377,392.708 571.043,396.542 574.5,400.5C 580.854,394.812 586.854,388.812 592.5,382.5 Z"/></g>
<g><path style="opacity:1" fill="#c59116" d="M 740.5,156.5 C 659.264,155.169 577.931,155.169 496.5,156.5C 536.995,155.167 577.828,154.5 619,154.5C 659.833,154.833 700.667,155.167 741.5,155.5C 741.376,156.107 741.043,156.44 740.5,156.5 Z"/></g>
<g><path style="opacity:1" fill="#fab613" d="M 740.5,156.5 C 738.268,168.956 736.268,181.456 734.5,194C 736.239,215.078 747.573,224.411 768.5,222C 775.863,219.305 780.363,214.138 782,206.5C 782.333,202.5 782.667,198.5 783,194.5C 791.221,211.512 787.721,225.679 772.5,237C 746.154,249.641 728.321,242.141 719,214.5C 716.926,204.272 716.093,193.939 716.5,183.5C 687.167,183.5 657.833,183.5 628.5,183.5C 628.5,204.833 628.5,226.167 628.5,247.5C 645.833,247.5 663.167,247.5 680.5,247.5C 679.047,256.884 677.381,266.217 675.5,275.5C 659.833,275.5 644.167,275.5 628.5,275.5C 628.333,312.502 628.5,349.502 629,386.5C 636.833,394.333 644.667,402.167 652.5,410C 645.364,416.135 638.531,422.635 632,429.5C 626,423.5 620,417.5 614,411.5C 608.985,416.682 603.819,421.682 598.5,426.5C 592.167,419.833 585.833,413.167 579.5,406.5C 586.188,399.48 592.855,392.48 599.5,385.5C 600.498,348.67 600.832,311.67 600.5,274.5C 583.167,274.5 565.833,274.5 548.5,274.5C 548.5,273.5 548.5,272.5 548.5,271.5C 549.677,263.796 551.01,256.13 552.5,248.5C 568.5,248.5 584.5,248.5 600.5,248.5C 600.831,226.66 600.497,204.994 599.5,183.5C 572.498,183.333 545.498,183.5 518.5,184C 528.403,193.048 531.903,204.215 529,217.5C 524.561,231.273 515.394,240.439 501.5,245C 486.322,248.052 472.988,244.385 461.5,234C 454.32,226.466 447.987,218.299 442.5,209.5C 449.198,204.144 456.198,199.144 463.5,194.5C 468.45,202.579 474.45,209.746 481.5,216C 489.516,220.596 497.516,220.596 505.5,216C 510.593,211.983 512.426,206.816 511,200.5C 507.816,191.485 501.983,184.818 493.5,180.5C 493.167,179.667 492.833,178.833 492.5,178C 493.974,170.849 495.307,163.682 496.5,156.5C 577.931,155.169 659.264,155.169 740.5,156.5 Z"/></g>
<g><path style="opacity:1" fill="#0066a6" d="M 271.5,191.5 C 291.049,190.54 301.882,199.874 304,219.5C 304.5,327.833 304.667,436.166 304.5,544.5C 286.167,544.5 267.833,544.5 249.5,544.5C 249.333,438.166 249.5,331.833 250,225.5C 250.959,213.418 255.792,203.251 264.5,195C 266.925,193.787 269.259,192.621 271.5,191.5 Z"/></g>
<g><path style="opacity:1" fill="#126237" d="M 592.5,190.5 C 593.497,207.325 593.83,224.325 593.5,241.5C 579.5,241.5 565.5,241.5 551.5,241.5C 564.99,240.504 578.656,240.171 592.5,240.5C 592.5,223.833 592.5,207.167 592.5,190.5 Z"/></g>
<g><path style="opacity:1" fill="#7b5d1c" d="M 599.5,183.5 C 600.497,204.994 600.831,226.66 600.5,248.5C 584.5,248.5 568.5,248.5 552.5,248.5C 567.991,247.504 583.658,247.17 599.5,247.5C 599.5,226.167 599.5,204.833 599.5,183.5 Z"/></g>
<g><path style="opacity:1" fill="#795c1c" d="M 548.5,271.5 C 548.5,272.5 548.5,273.5 548.5,274.5C 565.833,274.5 583.167,274.5 600.5,274.5C 600.832,311.67 600.498,348.67 599.5,385.5C 599.5,348.833 599.5,312.167 599.5,275.5C 582.167,275.5 564.833,275.5 547.5,275.5C 547.232,273.901 547.566,272.568 548.5,271.5 Z"/></g>
<g><path style="opacity:1" fill="#155a35" d="M 545.5,281.5 C 561.5,281.5 577.5,281.5 593.5,281.5C 593.832,315.337 593.498,349.004 592.5,382.5C 592.5,349.167 592.5,315.833 592.5,282.5C 576.658,282.83 560.991,282.496 545.5,281.5 Z"/></g>
<g><path style="opacity:1" fill="#fbb613" d="M 688.5,321.5 C 689.239,321.369 689.906,321.536 690.5,322C 700.345,332.678 710.345,343.178 720.5,353.5C 724.788,348.709 729.788,344.875 735.5,342C 747.323,341.163 752.156,346.663 750,358.5C 746.581,363.923 742.415,368.756 737.5,373C 743.366,378.531 748.866,384.365 754,390.5C 753.951,405.172 753.451,419.839 752.5,434.5C 739.839,433.067 727.173,431.567 714.5,430C 708.301,424.136 702.468,417.969 697,411.5C 675.959,432.043 654.792,452.376 633.5,472.5C 666.817,508.318 700.317,543.984 734,579.5C 737.997,586.721 737.164,593.221 731.5,599C 726.343,601.168 721.343,600.835 716.5,598C 682.655,561.989 648.655,526.156 614.5,490.5C 579.015,524.151 543.682,557.984 508.5,592C 497.417,599.455 490.084,596.788 486.5,584C 486.952,580.591 488.119,577.424 490,574.5C 525.565,540.266 561.065,506.099 596.5,472C 577.214,450.378 557.547,429.045 537.5,408C 536.5,407.333 535.5,407.333 534.5,408C 523.667,418.833 512.833,429.667 502,440.5C 490.667,428.5 479.333,416.5 468,404.5C 467.333,403.833 467.333,403.167 468,402.5C 494.68,375.653 521.514,348.986 548.5,322.5C 560.321,334.489 571.988,346.655 583.5,359C 574,368.5 564.5,378 555,387.5C 554.333,388.5 554.333,389.5 555,390.5C 574.715,411.926 594.882,432.926 615.5,453.5C 637.287,433.882 658.62,413.715 679.5,393C 669.167,382 658.833,371 648.5,360C 662.032,347.3 675.366,334.466 688.5,321.5 Z"/></g>
<g><path style="opacity:1" fill="#01a14e" d="M 612.5,421.5 C 618.199,424.358 622.866,428.525 626.5,434C 623.066,437.434 619.566,440.934 616,444.5C 611.651,440.318 607.485,435.985 603.5,431.5C 606.522,428.147 609.522,424.813 612.5,421.5 Z"/></g>
<g><path style="opacity:1" fill="#fab613" d="M 551.5,434.5 C 552.239,434.369 552.906,434.536 553.5,435C 559.134,441.636 565.134,447.969 571.5,454C 553.138,472.028 535.138,490.362 517.5,509C 516.5,509.667 515.5,509.667 514.5,509C 508.318,502.986 502.318,496.819 496.5,490.5C 514.855,471.813 533.188,453.146 551.5,434.5 Z"/></g>
<g><path style="opacity:1" fill="#fbb713" d="M 678.5,438.5 C 696.762,455.094 714.428,472.427 731.5,490.5C 725.5,497.167 719.167,503.5 712.5,509.5C 694.681,492.181 677.014,474.681 659.5,457C 665.729,450.603 672.062,444.436 678.5,438.5 Z"/></g>
<g><path style="opacity:1" fill="#231f20" d="M 416.5,546.5 C 417.664,578.997 417.831,611.664 417,644.5C 404.569,653.386 390.736,657.22 375.5,656C 364.407,650.605 353.074,645.605 341.5,641C 325.898,637.783 310.898,639.449 296.5,646C 283.416,660.091 268.916,661.924 253,651.5C 250.806,648.446 249.139,645.112 248,641.5C 246.025,627.919 245.192,614.252 245.5,600.5C 309.128,602.508 366.128,584.508 416.5,546.5 Z"/></g>
<g><path style="opacity:1" fill="#242021" d="M 83.5,548.5 C 106.658,565.085 131.658,578.585 158.5,589C 181.588,596.417 205.255,600.251 229.5,600.5C 229.92,613.228 229.42,625.894 228,638.5C 225.833,647.333 220.333,652.833 211.5,655C 200.74,656.061 190.407,654.395 180.5,650C 161.036,639.967 140.369,634.3 118.5,633C 103.114,606.391 91.447,578.225 83.5,548.5 Z"/></g>
<g><path style="opacity:1" fill="#231f20" d="M 155.5,683.5 C 159.182,683.335 162.848,683.501 166.5,684C 173.401,687.232 180.067,690.899 186.5,695C 201.482,700.197 216.148,699.53 230.5,693C 233.807,688.849 237.807,685.682 242.5,683.5C 244.942,684.036 247.275,684.869 249.5,686C 253.659,689.247 257.992,692.247 262.5,695C 269.084,696.544 275.751,696.877 282.5,696C 290.729,693.219 298.729,689.885 306.5,686C 320.578,682.534 334.578,682.867 348.5,687C 358.315,690.909 368.315,694.242 378.5,697C 384.833,697.667 391.167,697.667 397.5,697C 404.308,695.675 410.975,693.842 417.5,691.5C 417.5,731.5 417.5,771.5 417.5,811.5C 312.653,806.821 225.486,765.487 156,687.5C 154.666,686.122 154.499,684.789 155.5,683.5 Z"/></g>
</svg>
